!!!SOCIAL_FUNCTION:	dream songs
!!!PDT:	1929
!!!OTL: No_154_I_Am_Going_to_the_Mountain.krn
!!!REG: Southwest
!!!LANG: Non-Tone
!!!LING_GROUP: Uto-Aztecan
**kern
*staff1
=1-
*clefF4
*k[f#c#g#]
*M2/4
4d\
4B\
=2||
*M3/4
2.e\
=3||
*M2/4
4B\
4A\
=4||
*M3/4
2.B\
=5||
*M2/4
4d\
4B\
=6||
*M3/4
2.A\
=7
4A\
4r
4A\
=8
2.B\
=9||
*M2/4
4A\
(4d\
=10||
*M3/4
2.B\)
=11||
*M2/4
4A\
(4A\
=12||
*M3/4
4E\)
4D\
8BB/
8r
=13||
*M2/4
4D\
4E\
=14
4E\
4A\
=15
(4F#\
4D\)
=16||
*M3/4
2.E\
=17
[2E\
8E\L]
8E\J
=18
*M2/4
4E\
4r
==:|!
*-
